packages/kaspersky-hexa-ui-icons/src/iconsSVGs/48/Reports.svg

<svg xmlns="http://www.w3.org/2000/svg" width="48" height="48" fill="none" viewBox="0 0 48 48"><path fill="currentColor" fill-rule="evenodd" d="M48 38V0H0v38h16v8h-4v2h24v-2h-4v-8zM46 2v27H2V2zM2 36v-5h44v5zm28 10H18v-8h12zM9 25H7V14h2zm4 0h-2v-7h2zm4 0h-2V12h2zm4 0h-2v-9h2zm4 0h-2V6h2zm4 0h-2V10h2zm4 0h-2v-9h2zm4 0h-2v-5h2zm4 0h-2V12h2z" clip-rule="evenodd"/></svg>

<svg width="48" height="48" viewBox="0 0 48 48" fill="none" xmlns="http://www.w3.org/2000/svg">
<path fill-rule="evenodd" clip-rule="evenodd" d="M48 38V0H0V38H16V46H12V48H36V46H32V38H48ZM46 2V29H2V2H46ZM2 36V31H46V36H2ZM30 46H18V38H30V46ZM9 25H7V14H9V25ZM13 25H11V18H13V25ZM17 25H15V12H17V25ZM21 25H19V16H21V25ZM25 25H23V6H25V25ZM29 25H27V10H29V25ZM33 25H31V16H33V25ZM37 25H35V20H37V25ZM41 25H39V12H41V25Z"  fill="currentColor"/>
</svg>
